X: 23729
T: Liten Vals
R: waltz
M: 3/4
K: Cdorian
G,2|:C3D EG|F2D2FD|EDC B,A,B,|CD A,2B,2|
C3D EG|F2D2FD|EF GB AF|1 G4G,2:|2 G6||
|:cBc edB|G4c2|cBc edB|G4F2|
E6|DE F2D2|E2D2B,2|C6:|

